material/.icons/material/airbag.svg

<svg xmlns="http://www.w3.org/2000/svg" viewBox="0 0 24 24"><path d="M14 8a5 5 0 01-5 5 5 5 0 01-5-5 5 5 0 015-5 5 5 0 015 5m-3.54 7.55L13 18.03l-2 .02-3.5 3.53L6 20.09l4.46-4.54M17 2c1.08 0 2 .88 2 2 0 1.08-.88 2-2 2-1.08 0-2-.88-2-2 0-1.08.89-2 2-2m-2.59 13h-2.82l5.7 5.71 1.42-1.42-4.3-4.29m.71-.71l4.29 4.3.22.21c.23-.38.37-.8.37-1.3v-8A2.5 2.5 0 0017.5 7 2.5 2.5 0 0015 9.5v4.67l.12.12z"/></svg>

<?xml version="1.0" encoding="UTF-8"?><!DOCTYPE svg PUBLIC "-//W3C//DTD SVG 1.1//EN" "http://www.w3.org/Graphics/SVG/1.1/DTD/svg11.dtd"><svg xmlns="http://www.w3.org/2000/svg" xmlns:xlink="http://www.w3.org/1999/xlink" version="1.1" id="mdi-airbag" width="24" height="24" viewBox="0 0 24 24"><path d="M14,8A5,5 0 0,1 9,13A5,5 0 0,1 4,8A5,5 0 0,1 9,3A5,5 0 0,1 14,8M10.46,15.55L13,18.03L11,18.05L7.5,21.58L6,20.09L10.46,15.55M17,2C18.08,2 19,2.88 19,4C19,5.08 18.12,6 17,6C15.92,6 15,5.12 15,4C15,2.92 15.89,2 17,2M14.41,15H11.59L17.29,20.71L18.71,19.29L14.41,15M15.12,14.29L19.41,18.59L19.63,18.8C19.86,18.42 20,18 20,17.5V9.5A2.5,2.5 0 0,0 17.5,7A2.5,2.5 0 0,0 15,9.5V14.17L15.12,14.29Z" /></svg>
